X:1
T:E. O. Excell
T:Isabel C. Allam
T:Your Best Friend is Always Near
%%score { ( 1 2 ) | ( 3 4 ) }
L:1/8
M:4/4
K:Ab
V:1 treble 
V:2 treble 
V:3 bass 
V:4 bass 
V:1
{/x} c3 B B A3 | A3 G G F3 | E3 =D E2 c2 | c3 B B4 | c3 B B A3 | A3 G G F3 | E3 =D E2 c2 | %7
w: When the shad- ows|'round you gath- er,|When the day is|long and drear,,|In the morn- ing,|or at mid- night|Your best Friend is|
w: When your cour- age|al- most fails you,|When you need a|word of cheer,|There is One who|will go with you|Your best Friend is|
w: When your found- est|hopes have per- ished,|When so free- ly|falls the tear,|He who knows and|feels your sor- row\-|Your best Friend\- is|
w: When the val- ley|of the shad- ow|Your are tread- ing,|do not fea;|One there is who|will go with you:|Your best Friend is|
 c B3 A4 | B3 E E4 | c3 E E4 | f3 e d2 c2 | B2 A2 e4 | c3 B B A3 | A3 G G F3 | E3 =D E2 c2 | %15
w: al- ways near.|Al- ways near,|al- way, near,|Your best Friend is|al- ways near;|In your glad- ness,|in your sad- ness,|Your best Friend is|
w: al- ways near.||||||||
w: al- ways near.||||||||
w: al- ways near.||||||||
 c B3 A4 |] %16
w: al- ways near.|
w: |
w: |
w: |
V:2
 E3 D D C3 | F3 E E D3 | C3 =B, C2 E2 | E3 E E4 | E3 D D C3 | F3 E E D3 | C3 =B, C2 E2 | D D3 C4 | %8
w: ||||||||
w: ||||||||
 D3 D D>C B,2 | E3 C C>B, A,2 | F3 F F2 F2 | F2 F2 G4 | E3 D D C3 | F3 E E D3 | C3 =B, C2 E2 | %15
w: |||||||
w: He is al- ways near,|He is al- ways near,||||||
 D D3 C4 |] %16
w: |
w: |
V:3
 A,3 E, E, A,3 | A,3 A, A, A,3 | A,3 A, A,2 A,2 | A,3 G, G,4 | A,3 E, E, A,3 | A,3 A, A, A,3 | %6
 A,3 A, A,2 A,2 | G, G,3 A,4 | G,3 G, B,>A, G,2 | A,3 A, E>D C2 | C3 C B,2 A,2 | B,2 B,2 D4 | %12
 A,3 E, E, A,3 | A,3 A, A, A,3 | A,3 A, A,2 A,2 | G, G,3 A,4 |] %16
V:4
 A,,3 A,, A,, A,,3 | D,3 D, D, D,3 | A,,3 A,, A,,2 A,,2 | E,3 E, E,4 | A,,3 A,, A,, A,,3 | %5
 D,3 D, D, D,3 | E,3 =E, _E,2 E,2 | E, E,3 A,,4 | E,3 E, E,>E, E,2 | A,,3 A,, A,,>A,, A,,2 | %10
 =A,,3 A,, B,,2 C,2 | D,2 =D,2 E,4 | A,,3 A,, A,, A,,3 | D,3 D, D, D,3 | E,3 =E, _E,2 E,2 | %15
 E, E,3 A,,4 |] %16

